X:1
T:Moran's Return
M:C
L:1/8
R:Air
S:Joyce - Old Irish Folk Music and Songs (1909)
Z:AK/Fiddler's Companion
N:"Moderately slow: tender"
K:F
A<c|d2G2G2 c>B|A2F2F2 f>g|agfe fdcA|G2 G>A B2 A>c|
d2G2G2 c>B|A2F2F2 f>g|agfe fdcA|G2F2F2||
A>G|F2 f2 f3 g|agfe d2 f>e|d2g2 g3a|bagf g2 f>g|
a2 ba g2 ag|fgfd c2 f>g|agfe fdcA|G2F2F2||
